images/5459759.svg

<?xml version="1.0" encoding="UTF-8"?>
<svg xmlns="http://www.w3.org/2000/svg" xmlns:xlink="http://www.w3.org/1999/xlink" width="300pt" height="300pt" viewBox="0 0 300 300" version="1.1">
<defs>
<g>
<symbol overflow="visible" id="glyph0-0">
<path style="stroke:none;" d="M 0.796875 2.828125 L 0.796875 -11.28125 L 8.796875 -11.28125 L 8.796875 2.828125 Z M 1.703125 1.9375 L 7.90625 1.9375 L 7.90625 -10.390625 L 1.703125 -10.390625 Z M 1.703125 1.9375 "/>
</symbol>
<symbol overflow="visible" id="glyph0-1">
<path style="stroke:none;" d="M 1.578125 -11.671875 L 3.703125 -11.671875 L 8.875 -1.90625 L 8.875 -11.671875 L 10.40625 -11.671875 L 10.40625 0 L 8.28125 0 L 3.109375 -9.765625 L 3.109375 0 L 1.578125 0 Z M 1.578125 -11.671875 "/>
</symbol>
<symbol overflow="visible" id="glyph0-2">
<path style="stroke:none;" d="M 6.3125 -10.59375 C 5.164062 -10.59375 4.253906 -10.164062 3.578125 -9.3125 C 2.898438 -8.457031 2.5625 -7.296875 2.5625 -5.828125 C 2.5625 -4.359375 2.898438 -3.195312 3.578125 -2.34375 C 4.253906 -1.488281 5.164062 -1.0625 6.3125 -1.0625 C 7.457031 -1.0625 8.363281 -1.488281 9.03125 -2.34375 C 9.695312 -3.195312 10.03125 -4.359375 10.03125 -5.828125 C 10.03125 -7.296875 9.695312 -8.457031 9.03125 -9.3125 C 8.363281 -10.164062 7.457031 -10.59375 6.3125 -10.59375 Z M 6.3125 -11.875 C 7.945312 -11.875 9.253906 -11.328125 10.234375 -10.234375 C 11.210938 -9.140625 11.703125 -7.671875 11.703125 -5.828125 C 11.703125 -3.984375 11.210938 -2.507812 10.234375 -1.40625 C 9.253906 -0.3125 7.945312 0.234375 6.3125 0.234375 C 4.664062 0.234375 3.351562 -0.3125 2.375 -1.40625 C 1.394531 -2.507812 0.90625 -3.984375 0.90625 -5.828125 C 0.90625 -7.671875 1.394531 -9.140625 2.375 -10.234375 C 3.351562 -11.328125 4.664062 -11.875 6.3125 -11.875 Z M 6.3125 -11.875 "/>
</symbol>
<symbol overflow="visible" id="glyph0-3">
<path style="stroke:none;" d="M 1.578125 -11.671875 L 3.15625 -11.671875 L 3.15625 -6.890625 L 8.890625 -6.890625 L 8.890625 -11.671875 L 10.46875 -11.671875 L 10.46875 0 L 8.890625 0 L 8.890625 -5.5625 L 3.15625 -5.5625 L 3.15625 0 L 1.578125 0 Z M 1.578125 -11.671875 "/>
</symbol>
</g>
</defs>
<g id="surface34581">
<rect x="0" y="0" width="300" height="300" style="fill:rgb(100%,100%,100%);fill-opacity:1;stroke:none;"/>
<path style="fill:none;stroke-width:1.2;stroke-linecap:butt;stroke-linejoin:miter;stroke:rgb(0%,0%,0%);stroke-opacity:1;stroke-miterlimit:10;" d="M 97.085938 217.890625 L 128.910156 196.671875 "/>
<path style="fill:none;stroke-width:1.2;stroke-linecap:butt;stroke-linejoin:miter;stroke:rgb(0%,0%,0%);stroke-opacity:1;stroke-miterlimit:10;" d="M 128.910156 196.671875 L 146.6875 230.539062 "/>
<path style="fill:none;stroke-width:1.2;stroke-linecap:butt;stroke-linejoin:miter;stroke:rgb(0%,0%,0%);stroke-opacity:1;stroke-miterlimit:10;" d="M 128.910156 196.671875 L 104.480469 167.238281 "/>
<path style="fill:none;stroke-width:1.2;stroke-linecap:butt;stroke-linejoin:miter;stroke:rgb(0%,0%,100%);stroke-opacity:1;stroke-miterlimit:10;" d="M 155.628906 169.296875 L 142.269531 182.984375 "/>
<path style="fill:none;stroke-width:1.2;stroke-linecap:butt;stroke-linejoin:miter;stroke:rgb(0%,0%,0%);stroke-opacity:1;stroke-miterlimit:10;" d="M 142.269531 182.984375 L 128.910156 196.671875 "/>
<path style="fill:none;stroke-width:1.2;stroke-linecap:butt;stroke-linejoin:miter;stroke:rgb(0%,0%,0%);stroke-opacity:1;stroke-miterlimit:10;" d="M 146.6875 230.539062 L 184.390625 224.097656 "/>
<path style="fill:none;stroke-width:1.2;stroke-linecap:butt;stroke-linejoin:miter;stroke:rgb(0%,0%,0%);stroke-opacity:1;stroke-miterlimit:10;" d="M 148.941406 221.023438 L 179.105469 215.871094 "/>
<path style="fill:none;stroke-width:1.2;stroke-linecap:butt;stroke-linejoin:miter;stroke:rgb(0%,0%,0%);stroke-opacity:1;stroke-miterlimit:10;" d="M 184.390625 224.097656 L 189.917969 186.25 "/>
<path style="fill:none;stroke-width:1.2;stroke-linecap:butt;stroke-linejoin:miter;stroke:rgb(0%,0%,0%);stroke-opacity:1;stroke-miterlimit:10;" d="M 189.917969 186.25 L 172.773438 177.773438 "/>
<path style="fill:none;stroke-width:1.2;stroke-linecap:butt;stroke-linejoin:miter;stroke:rgb(0%,0%,100%);stroke-opacity:1;stroke-miterlimit:10;" d="M 172.773438 177.773438 L 155.628906 169.296875 "/>
<path style="fill:none;stroke-width:1.2;stroke-linecap:butt;stroke-linejoin:miter;stroke:rgb(0%,0%,0%);stroke-opacity:1;stroke-miterlimit:10;" d="M 189.917969 186.25 L 222.246094 206.691406 "/>
<path style="fill:none;stroke-width:1.2;stroke-linecap:butt;stroke-linejoin:miter;stroke:rgb(0%,0%,0%);stroke-opacity:1;stroke-miterlimit:10;" d="M 191.457031 148.03125 L 189.917969 186.25 "/>
<path style="fill:none;stroke-width:1.2;stroke-linecap:butt;stroke-linejoin:miter;stroke:rgb(0%,0%,100%);stroke-opacity:1;stroke-miterlimit:10;" d="M 155.628906 169.296875 L 152.40625 150.445312 "/>
<path style="fill:none;stroke-width:1.2;stroke-linecap:butt;stroke-linejoin:miter;stroke:rgb(0%,0%,0%);stroke-opacity:1;stroke-miterlimit:10;" d="M 152.40625 150.445312 L 149.1875 131.59375 "/>
<path style=" stroke:none;fill-rule:nonzero;fill:rgb(100%,100%,100%);fill-opacity:1;" d="M 149.628906 159.796875 L 161.628906 159.796875 L 161.628906 178.796875 L 149.628906 178.796875 Z M 149.628906 159.796875 "/>
<g style="fill:rgb(0%,0%,100%);fill-opacity:1;">
  <use xlink:href="#glyph0-1" x="149.628906" y="174.648438"/>
</g>
<path style="fill:none;stroke-width:1.2;stroke-linecap:butt;stroke-linejoin:miter;stroke:rgb(0%,0%,0%);stroke-opacity:1;stroke-miterlimit:10;" d="M 151.25 127.597656 L 138.863281 121.199219 "/>
<path style="fill:none;stroke-width:1.2;stroke-linecap:butt;stroke-linejoin:miter;stroke:rgb(100%,0%,0%);stroke-opacity:1;stroke-miterlimit:10;" d="M 138.863281 121.199219 L 126.472656 114.804688 "/>
<path style="fill:none;stroke-width:1.2;stroke-linecap:butt;stroke-linejoin:miter;stroke:rgb(0%,0%,0%);stroke-opacity:1;stroke-miterlimit:10;" d="M 147.121094 135.59375 L 134.734375 129.195312 "/>
<path style="fill:none;stroke-width:1.2;stroke-linecap:butt;stroke-linejoin:miter;stroke:rgb(100%,0%,0%);stroke-opacity:1;stroke-miterlimit:10;" d="M 134.734375 129.195312 L 122.347656 122.800781 "/>
<path style="fill:none;stroke-width:1.2;stroke-linecap:butt;stroke-linejoin:miter;stroke:rgb(0%,0%,0%);stroke-opacity:1;stroke-miterlimit:10;" d="M 149.1875 131.59375 L 163.902344 119.378906 "/>
<path style="fill:none;stroke-width:1.2;stroke-linecap:butt;stroke-linejoin:miter;stroke:rgb(100%,0%,0%);stroke-opacity:1;stroke-miterlimit:10;" d="M 163.902344 119.378906 L 178.617188 107.164062 "/>
<path style=" stroke:none;fill-rule:nonzero;fill:rgb(100%,100%,100%);fill-opacity:1;" d="M 111.410156 109.300781 L 124.410156 109.300781 L 124.410156 128.300781 L 111.410156 128.300781 Z M 111.410156 109.300781 "/>
<g style="fill:rgb(100%,0%,0%);fill-opacity:1;">
  <use xlink:href="#glyph0-2" x="111.410156" y="124.152344"/>
</g>
<path style="fill:none;stroke-width:1.2;stroke-linecap:butt;stroke-linejoin:miter;stroke:rgb(100%,0%,0%);stroke-opacity:1;stroke-miterlimit:10;" d="M 178.617188 107.164062 L 175.398438 88.3125 "/>
<path style="fill:none;stroke-width:1.2;stroke-linecap:butt;stroke-linejoin:miter;stroke:rgb(0%,0%,0%);stroke-opacity:1;stroke-miterlimit:10;" d="M 175.398438 88.3125 L 172.179688 69.460938 "/>
<path style=" stroke:none;fill-rule:nonzero;fill:rgb(100%,100%,100%);fill-opacity:1;" d="M 172.617188 97.664062 L 185.617188 97.664062 L 185.617188 116.664062 L 172.617188 116.664062 Z M 172.617188 97.664062 "/>
<g style="fill:rgb(100%,0%,0%);fill-opacity:1;">
  <use xlink:href="#glyph0-2" x="172.617188" y="112.515625"/>
</g>
<path style="fill:none;stroke-width:1.2;stroke-linecap:butt;stroke-linejoin:miter;stroke:rgb(0%,0%,0%);stroke-opacity:1;stroke-miterlimit:10;" d="M 222.246094 206.691406 L 256.113281 188.914062 "/>
<path style="fill:none;stroke-width:1.2;stroke-linecap:butt;stroke-linejoin:miter;stroke:rgb(0%,0%,0%);stroke-opacity:1;stroke-miterlimit:10;" d="M 256.113281 188.914062 L 257.652344 150.695312 "/>
<path style="fill:none;stroke-width:1.2;stroke-linecap:butt;stroke-linejoin:miter;stroke:rgb(0%,0%,0%);stroke-opacity:1;stroke-miterlimit:10;" d="M 257.652344 150.695312 L 225.324219 130.253906 "/>
<path style="fill:none;stroke-width:1.2;stroke-linecap:butt;stroke-linejoin:miter;stroke:rgb(0%,0%,0%);stroke-opacity:1;stroke-miterlimit:10;" d="M 225.324219 130.253906 L 191.457031 148.03125 "/>
<path style="fill:none;stroke-width:1.2;stroke-linecap:butt;stroke-linejoin:miter;stroke:rgb(0%,0%,0%);stroke-opacity:1;stroke-miterlimit:10;" d="M 108.859375 168.273438 L 112.070312 154.707031 "/>
<path style="fill:none;stroke-width:1.2;stroke-linecap:butt;stroke-linejoin:miter;stroke:rgb(100%,0%,0%);stroke-opacity:1;stroke-miterlimit:10;" d="M 112.070312 154.707031 L 115.277344 141.136719 "/>
<path style="fill:none;stroke-width:1.2;stroke-linecap:butt;stroke-linejoin:miter;stroke:rgb(0%,0%,0%);stroke-opacity:1;stroke-miterlimit:10;" d="M 100.101562 166.203125 L 103.308594 152.636719 "/>
<path style="fill:none;stroke-width:1.2;stroke-linecap:butt;stroke-linejoin:miter;stroke:rgb(100%,0%,0%);stroke-opacity:1;stroke-miterlimit:10;" d="M 103.308594 152.636719 L 106.519531 139.066406 "/>
<path style="fill:none;stroke-width:1.2;stroke-linecap:butt;stroke-linejoin:miter;stroke:rgb(0%,0%,0%);stroke-opacity:1;stroke-miterlimit:10;" d="M 104.480469 167.238281 L 85.628906 170.460938 "/>
<path style="fill:none;stroke-width:1.2;stroke-linecap:butt;stroke-linejoin:miter;stroke:rgb(0%,0%,100%);stroke-opacity:1;stroke-miterlimit:10;" d="M 85.628906 170.460938 L 66.777344 173.679688 "/>
<path style=" stroke:none;fill-rule:nonzero;fill:rgb(100%,100%,100%);fill-opacity:1;" d="M 104.898438 130.601562 L 117.898438 130.601562 L 117.898438 149.601562 L 104.898438 149.601562 Z M 104.898438 130.601562 "/>
<g style="fill:rgb(100%,0%,0%);fill-opacity:1;">
  <use xlink:href="#glyph0-2" x="104.898438" y="145.453125"/>
</g>
<path style="fill:none;stroke-width:1.2;stroke-linecap:butt;stroke-linejoin:miter;stroke:rgb(0%,0%,100%);stroke-opacity:1;stroke-miterlimit:10;" d="M 66.777344 173.679688 L 54.5625 158.964844 "/>
<path style="fill:none;stroke-width:1.2;stroke-linecap:butt;stroke-linejoin:miter;stroke:rgb(0%,0%,0%);stroke-opacity:1;stroke-miterlimit:10;" d="M 54.5625 158.964844 L 42.347656 144.246094 "/>
<path style=" stroke:none;fill-rule:nonzero;fill:rgb(100%,100%,100%);fill-opacity:1;" d="M 54.777344 164.179688 L 78.777344 164.179688 L 78.777344 183.179688 L 54.777344 183.179688 Z M 54.777344 164.179688 "/>
<g style="fill:rgb(0%,0%,100%);fill-opacity:1;">
  <use xlink:href="#glyph0-1" x="54.777344" y="179.03125"/>
  <use xlink:href="#glyph0-3" x="66.746094" y="179.03125"/>
</g>
</g>
</svg>

<svg xmlns="http://www.w3.org/2000/svg" xmlns:xlink="http://www.w3.org/1999/xlink" width="300pt" height="300pt" viewBox="0 0 300 300"><defs><symbol overflow="visible"><path d="M.797 2.828v-14.11h8V2.83zm.906-.89h6.203v-12.33H1.703zm0 0"/></symbol><symbol overflow="visible" id="a"><path d="M1.578-11.672h2.125l5.172 9.766v-9.766h1.53V0H8.282L3.11-9.766V0H1.577zm0 0"/></symbol><symbol overflow="visible" id="b"><path d="M6.313-10.594c-1.15 0-2.06.43-2.735 1.28-.68.857-1.015 2.017-1.015 3.486 0 1.47.335 2.633 1.015 3.484.676.856 1.586 1.28 2.735 1.28 1.144.002 2.05-.424 2.718-1.28.665-.85 1-2.015 1-3.484 0-1.47-.335-2.63-1-3.484-.667-.852-1.573-1.282-2.717-1.282zm0-1.28c1.632 0 2.94.546 3.92 1.64.978 1.093 1.47 2.562 1.47 4.406 0 1.844-.492 3.32-1.47 4.422-.98 1.093-2.288 1.64-3.92 1.64-1.65 0-2.96-.546-3.938-1.64-.98-1.102-1.47-2.578-1.47-4.422 0-1.844.49-3.313 1.47-4.406.977-1.094 2.29-1.64 3.938-1.64zm0 0"/></symbol><symbol overflow="visible" id="c"><path d="M1.578-11.672h1.578v4.78H8.89v-4.78h1.58V0H8.89v-5.563H3.157V0H1.578zm0 0"/></symbol></defs><g><path fill="#fff" d="M0 0h300v300H0z"/><path d="M97.086 217.89l31.824-21.218M128.91 196.672l17.778 33.867M128.91 196.672l-24.43-29.434" stroke-width="1.2" stroke="#000" stroke-miterlimit="10" fill="none"/><path d="M155.63 169.297l-13.36 13.687" stroke-width="1.2" stroke="#00f" stroke-miterlimit="10" fill="none"/><path d="M142.27 182.984l-13.36 13.688M146.688 230.54l37.703-6.442M148.94 221.023l30.165-5.152M184.39 224.098l5.528-37.848M189.918 186.25l-17.145-8.477" stroke-width="1.2" stroke="#000" stroke-miterlimit="10" fill="none"/><path d="M172.773 177.773l-17.144-8.476" stroke-width="1.2" stroke="#00f" stroke-miterlimit="10" fill="none"/><path d="M189.918 186.25l32.328 20.44M191.457 148.03l-1.54 38.22" stroke-width="1.2" stroke="#000" stroke-miterlimit="10" fill="none"/><path d="M155.63 169.297l-3.224-18.852" stroke-width="1.2" stroke="#00f" stroke-miterlimit="10" fill="none"/><path d="M152.406 150.445l-3.22-18.85" stroke-width="1.2" stroke="#000" stroke-miterlimit="10" fill="none"/><path d="M149.63 159.797h12v19h-12zm0 0" fill="#fff"/><use xlink:href="#a" x="149.629" y="174.648" fill="#00f"/><path d="M151.25 127.598l-12.387-6.4" stroke-width="1.2" stroke="#000" stroke-miterlimit="10" fill="none"/><path d="M138.863 121.2l-12.39-6.395" stroke-width="1.2" stroke="#f00" stroke-miterlimit="10" fill="none"/><path d="M147.12 135.594l-12.386-6.4" stroke-width="1.2" stroke="#000" stroke-miterlimit="10" fill="none"/><path d="M134.734 129.195l-12.386-6.394" stroke-width="1.2" stroke="#f00" stroke-miterlimit="10" fill="none"/><path d="M149.188 131.594L163.9 119.38" stroke-width="1.2" stroke="#000" stroke-miterlimit="10" fill="none"/><path d="M163.902 119.38l14.715-12.216" stroke-width="1.2" stroke="#f00" stroke-miterlimit="10" fill="none"/><path d="M111.41 109.3h13v19h-13zm0 0" fill="#fff"/><use xlink:href="#b" x="111.41" y="124.152" fill="#f00"/><path d="M178.617 107.164l-3.22-18.852" stroke-width="1.2" stroke="#f00" stroke-miterlimit="10" fill="none"/><path d="M175.398 88.313L172.18 69.46" stroke-width="1.2" stroke="#000" stroke-miterlimit="10" fill="none"/><path d="M172.617 97.664h13v19h-13zm0 0" fill="#fff"/><use xlink:href="#b" x="172.617" y="112.516" fill="#f00"/><path d="M222.246 206.69l33.867-17.776M256.113 188.914l1.54-38.22M257.652 150.695l-32.328-20.44M225.324 130.254l-33.867 17.777M108.86 168.273l3.21-13.566" stroke-width="1.2" stroke="#000" stroke-miterlimit="10" fill="none"/><path d="M112.07 154.707l3.207-13.57" stroke-width="1.2" stroke="#f00" stroke-miterlimit="10" fill="none"/><path d="M100.102 166.203l3.207-13.566" stroke-width="1.2" stroke="#000" stroke-miterlimit="10" fill="none"/><path d="M103.31 152.637l3.21-13.57" stroke-width="1.2" stroke="#f00" stroke-miterlimit="10" fill="none"/><path d="M104.48 167.238l-18.85 3.223" stroke-width="1.2" stroke="#000" stroke-miterlimit="10" fill="none"/><path d="M85.63 170.46l-18.853 3.22" stroke-width="1.2" stroke="#00f" stroke-miterlimit="10" fill="none"/><path d="M104.898 130.602h13v19h-13zm0 0" fill="#fff"/><use xlink:href="#b" x="104.898" y="145.453" fill="#f00"/><path d="M66.777 173.68l-12.215-14.715" stroke-width="1.2" stroke="#00f" stroke-miterlimit="10" fill="none"/><path d="M54.563 158.965l-12.215-14.72" stroke-width="1.2" stroke="#000" stroke-miterlimit="10" fill="none"/><path d="M54.777 164.18h24v19h-24zm0 0" fill="#fff"/><g fill="#00f"><use xlink:href="#a" x="54.777" y="179.031"/><use xlink:href="#c" x="66.746" y="179.031"/></g></g></svg>
